X:1
T:Amor senza misura
T:Giovanni Animuccia
T:Source : Primo libro delle Laud spirituali a tre voci---Roma---A.Gardano---1583. Editor : André Vierendeels (22/11/17). Notes : Original clefs : G2, G2, C3 Editorial accidentals above the staff 
T:Amor senza misura
T:©
T:©
C:Giovanni Animuccia
Z:©
%%score [ 1 2 3 ]
L:1/8
Q:1/4=120
M:2/2
K:F
V:1 treble nm="Soprano 1" snm="S 1"
V:2 treble nm="Soprano 2" snm="S 2"
V:3 treble-8 nm="Tenor" snm="T"
V:1
"^1.\n2." z2 A2 c4 | c2 c4 A2 | c4 A4 | z2 c2 c4 | c2 d4 e2 | d4 c4 :: A4 A4 | A2 B4 c2 | A4 G4 | %9
w: A- mor|sen- za mi-|su- ra|in- fiam-|ma- mi d'a-|mo- re,|si ch'ab-|bru- g'il mio|co- re,|
w: Scen- der|per- noi dal|cie- lo,|e que-|sta mor- tal|car- ne,|ve- stir-|ti per sal-|var- ne,|
 z2 G2 A4 | A2 F4 F2 | G4 A4 | c4 d4 | d2 c4 B2 | A4 !fermata!G4 :| %15
w: del- la|tua fiam- ma|pu- ra|del- la|tua fiam- ma|pu- ra.|
w: e par-|tir cal- do,e|ge- lo|po- co'à|te par Si-|gno- re.|
V:2
"^1.\n3." z2 F2 A4 | A2 A4 F2 | A4 F4 | z2 A2 A4 | c2 B4 c2 | B4 c4 :: F4 F4 | F2 G4 E2 | %8
w: A- mor|sen- za mi-|su- ra|in- fiam-|ma- mi d'a-|mo- re,|si ch'ab-|bru- g'il mio|
w: Par me-|co'in com- pa-|gni- a|tant' an-|ni pe- re-|gri- no,|per mon-|strar- m'il ca-|
"^#" F4 G4 | z2 E2 F4 | F2 D4 F2 | E4 F4 | A4 B4 | B2 G4 G2 |"^#" F4 !fermata!G4 :| %15
w: co- re,|del- la|tua fiam- ma|pu- ra|del- la|tua fiam- ma|pu- ra.|
w: mi- no,|po- co'à|te par che|si- a,|po- co'à|te par che|si- a.|
V:3
"^1.\n4." z2 F2 F4 | F2 F4 F2 | F4 F4 | z2 f2 f4 | a2 g4 c2 | g4 c4 :: d4 d4 | d2 g4 c2 | d4 G4 | %9
w: A- mor|sen- za mi-|su- ra|in- fiam-|ma- mi d'a-|mo- re,|si ch'ab-|bru- g'il mio|co- re|
w: Che non|hai mag- gior|cu- ra,|sof- frir|cro- c'e tor-|men- ti,|e per|mio prez- zo'il|san- gue,|
 z2 c2 F4 | F2 B4 d2 | c4 F4 | f4 B4 | B2 c4 G2 | d4 !fermata!G4 :| %15
w: del- la|tua fiam- ma|pu- ra|del- la|tua fiam- ma|pu- ra|
w: pa- gar,|re- stan- do'e-|san- gue,|An- cor|non te con-|ten- ti.|

